public/icons/welcome-slider-ico2.svg

<svg width="18" height="18" viewBox="0 0 18 18" fill="none" xmlns="http://www.w3.org/2000/svg">
<path d="M17.7562 0.0416186C17.5981 -0.0344744 17.4092 -0.00444286 17.2827 0.117118C16.3172 1.04369 14.6535 2.41351 12.2109 3.67741C12.1041 3.73272 12.026 3.83108 11.9965 3.94769C11.7972 4.73475 11.4061 5.59378 10.8343 6.50096L10.6015 6.87015L11.0355 4.97995C11.0709 4.82583 11.0168 4.66489 10.8956 4.56336C10.7743 4.46184 10.6063 4.4369 10.4609 4.4989L10.4107 4.52007C5.48232 6.59462 4.02587 9.80799 3.59632 11.5386C3.44725 12.1393 3.37289 12.7341 3.37542 13.3068C3.37641 13.5277 3.38887 13.7383 3.41252 13.9354L0.127858 17.285C-0.0310069 17.4469 -0.0327385 17.7058 0.123999 17.8699C0.206474 17.9562 0.317151 18 0.428223 18C0.528163 18 0.62835 17.9645 0.708451 17.8929L9.73413 9.78632C9.77846 9.78924 4.59493 15.219 4.64188 15.219C5.34542 15.219 6.31727 14.8947 7.45228 14.2814C8.9828 13.4544 10.6933 12.1852 12.3988 10.6111C12.5389 10.4819 12.5745 10.2744 12.4855 10.1058C12.3965 9.93727 12.2054 9.8495 12.0194 9.89235L10.9625 10.135L11.3318 9.90214C12.3627 9.25224 13.3263 8.83788 14.196 8.67036C14.2901 8.6522 14.3752 8.60248 14.4372 8.5294C16.4829 6.11748 17.349 3.73431 17.7152 2.1598C17.8483 1.58752 17.9418 1.01524 17.9926 0.458844C18.0086 0.284097 17.9144 0.117712 17.7562 0.0416186Z" fill="#7B65F3"/>
</svg>

<svg viewBox="0 0 18 18" fill="none" xmlns="http://www.w3.org/2000/svg"><path d="M17.756.042a.42.42 0 00-.473.075c-.966.927-2.63 2.297-5.072 3.56a.42.42 0 00-.215.27c-.199.788-.59 1.647-1.162 2.554l-.232.37.434-1.891a.42.42 0 00-.575-.481l-.05.021C5.482 6.595 4.026 9.808 3.596 11.54c-.149.6-.223 1.195-.22 1.768 0 .22.013.431.037.628l-3.285 3.35a.42.42 0 00.58.608l9.026-8.107c.044.003-5.14 5.433-5.092 5.433.703 0 1.675-.324 2.81-.938 1.53-.827 3.241-2.096 4.947-3.67a.42.42 0 00-.38-.719l-1.056.243.369-.233c1.03-.65 1.994-1.064 2.864-1.232a.42.42 0 00.241-.14c2.046-2.413 2.912-4.796 3.278-6.37.133-.572.227-1.145.278-1.701a.42.42 0 00-.237-.417z" fill="#7B65F3"/></svg>
